!!!COM: Palestrina, Giovanni Perluigi da
!!!OPR: Descendit angelus Domini
!!!OTL: Agnus I
**kern	**kern	**kern	**kern
*Ibass	*Itenor	*Icalto	*Icant
!Bassus	!Tenor	!Altus	!Cantus
*clefF4	*clefGv2	*clefG2	*clefG2
*k[b-]	*k[b-]	*k[b-]	*k[b-]
*F:ion	*F:ion	*F:ion	*F:ion
*M4/2	*M4/2	*M4/2	*M4/2
=1	=1	=1	=1
0r	0r	0r	0cc
=2	=2	=2	=2
0r	0r	0r	1a
.	.	.	1f
=3	=3	=3	=3
0r	0r	0f	1.cc
.	.	.	2cc
=4	=4	=4	=4
0r	0r	1d	1dd
.	.	1c	1ee
=5	=5	=5	=5
0r	0r	1.f	2cc
.	.	.	4ff
.	.	.	4ee
.	.	.	4dd
.	.	.	4cc
.	.	2f	[2ff
=6	=6	=6	=6
1r	0c	1g	2ff]
.	.	.	2ee
[1F	.	1a	1ff
=7	=7	=7	=7
1F]	1A	2f	2r
.	.	1a	2cc
1D	1F	.	2dd
.	.	4g	2ff
.	.	4f	.
=8	=8	=8	=8
1C	1.c	1g	4ee
.	.	.	4dd
.	.	.	4cc
.	.	.	4b-
[1F	.	1f	4a
.	.	.	4b-
.	2c	.	[2cc
=9	=9	=9	=9
2F]	1.d	1a	2cc]
2F	.	.	4b-
.	.	.	4a
1G	.	2.g	1b-
.	[2e	.	.
.	.	4f	.
=10	=10	=10	=10
1A	2e]	1e	1cc
.	2c	.	.
2F	2.f	1r	1r
[2B-	.	.	.
.	4e	.	.
=11	=11	=11	=11
4B-]	4d	0r	0r
4A	4c	.	.
4F	1f	.	.
4G	.	.	.
4A	.	.	.
4B-	.	.	.
[2c	2e	.	.
=12	=12	=12	=12
2c]	1d	2r	1r
2B-	.	2g	.
2.c	2.e	1g	2r
.	.	.	2cc
4B-	8d	.	.
.	8e	.	.
=13	=13	=13	=13
4A	2f	2a	1cc
4G	.	.	.
2A	2e	2cc	.
1G	1g	2b-	1dd
.	.	2g	.
=14	=14	=14	=14
4F	1r	1a	1ff
4G	.	.	.
4A	.	.	.
4B-	.	.	.
1c	2r	2g	2ee
.	2c	[2cc	2cc
=15	=15	=15	=15
0r	1c	4cc]	1ee
.	.	4b-	.
.	.	4g	.
.	.	4a	.
.	1d	2b-	2dd
.	.	4a	[2ff
.	.	4g	.
=16	=16	=16	=16
0r	1f	1a	4ff]
.	.	.	4ee
.	.	.	4cc
.	.	.	4dd
.	2e	[1g	4ee
.	.	.	4ff
.	2c	.	[2ee
=17	=17	=17	=17
1G	1e	1g]	4ee]
.	.	.	4dd
.	.	.	1cc
1G	1d	2r	.
.	.	2g	2b-
=18	=18	=18	=18
1A	2r	2e	0cc
.	2f	2a	.
1c	2e	2g	.
.	2c	2e	.
=19	=19	=19	=19
2B-	2.d	2f	0r
2G	.	2g	.
.	4c	.	.
1B-	4d	2.f	.
.	4e	.	.
.	[2f	.	.
.	.	4g	.
=20	=20	=20	=20
2.A	2f]	1a	2r
.	2.e	.	2cc
8G	.	.	.
8F	.	.	.
2E	.	1r	1cc
.	4d	.	.
2F	[2c	.	.
=21	=21	=21	=21
0D	2c]	1f	1dd
.	4B	.	.
.	4A	.	.
.	2B	1f	1ff
.	2A	.	.
=22	=22	=22	=22
2C	1c	1g	2ee
2c	.	.	2cc
2B-	1r	1b-	2.dd
2G	.	.	.
.	.	.	4ee
=23	=23	=23	=23
1d	1r	2a	1ff
.	.	2f	.
1A	2r	1a	2cc
.	2c	.	[2ff
=24	=24	=24	=24
1r	1c	1g	2ff]
.	.	.	2ee
2r	1d	2.f	2ff
2F	.	.	4f
.	.	8e	4g
.	.	8d	.
=25	=25	=25	=25
1F	1f	1c	4a
.	.	.	4b-
.	.	.	4cc
.	.	.	4a
1G	2e	2r	2.b-
.	[2d	2g	.
.	.	.	4cc
=26	=26	=26	=26
1B-	4d]	2f	1dd
.	4e	.	.
.	4f	2d	.
.	4d	.	.
2A	2e	[1a	2cc
2F	[2f	.	[2dd
=27	=27	=27	=27
1A	4f]	2a]	2dd]
.	4e	.	.
.	2c	2e	1cc
1G	1d	2r	.
.	.	[2g	2b
=28	=28	=28	=28
2r	1c	2g]	1cc
1c	.	2e	.
.	1r	2g	2r
2A	.	2a	[2cc
=29	=29	=29	=29
2c	0r	2g	2cc]
2d	.	2f	2a
2A	.	2e	2cc
2B-	.	4d	2dd
.	.	4e	.
=30	=30	=30	=30
0F	2r	4f	2cc
.	.	4g	.
.	1c	4a	4f
.	.	4b-	4g
.	.	2.cc	4a
.	.	.	4b-
.	2A	.	4cc
.	.	8b-	4dd
.	.	8a	.
=31	=31	=31	=31
0r	2c	2g	2ee
.	2d	2f	1ff
.	1c	1g	.
.	.	.	2ee
=32	=32	=32	=32
2r	4F	2a	1ff
.	4G	.	.
1F	4A	1a	.
.	4B-	.	.
.	4c	.	2r
.	4A	.	.
2D	2d	2f	[2ff
=33	=33	=33	=33
2F	2c	2a	2ff]
2G	2B-	2b-	2dd
2F	[1c	2a	2ff
2E	.	2g	[2gg
=34	=34	=34	=34
1F	0c]	1a	2gg]
.	.	.	1ff
2C	.	1g	.
[2c	.	.	4ee
.	.	.	4dd
=35	=35	=35	=35
2c]	0r	2.c	4ee
.	.	.	4dd
2A	.	.	4cc
.	.	4d	4b-
2c	.	2e	2.a
2d	.	[2f	.
.	.	.	8g
.	.	.	8f
=36	=36	=36	=36
1c	2r	2f]	1g
.	1c	2e	.
1F	.	2.f	2a
.	2A	.	[2cc
.	.	4g	.
=37	=37	=37	=37
2r	2c	1a	2cc]
1F	2d	.	2a
.	2c	2r	2cc
2D	4B-	[2f	2dd
.	8A	.	.
.	8G	.	.
=38	=38	=38	=38
2F	2A	2f]	2cc
2G	2B-	2d	2b-
2F	1c	2f	2a
2E	.	[2g	2g
=39	=39	=39	=39
1D	1F	2g]	2.a
.	.	1f	.
.	.	.	4b-
1C	1G	.	1cc
.	.	2e	.
=40	=40	=40	=40
0F	0F	0f	0a
==	==	==	==
*-	*-	*-	*-
!!!CDT: 1525/^1526/-1594/2/2
!!!OCY: Italia
!!!AGN: Mass (Parody)
!!!AST: renaissance, vocal
!!!ASW: Motet 1532 (Penet)
!!!PWK: Masses, Book 11
!!!RNB: Cadence finals: C
!!!YOR: Le Opere Complete, v. 28, p. 1
!!!YOO: Rome, Italy: Fratelli Scalera
!!!END: 1992//
!!!EED: John Miller
!!!YEC: Copyright 2000, John Miller
!!!YEN: United States of America
!!!YEM: Rights to all derivative electronic formats reserved.
!!!YEM: Refer to licensing agreement for further details.
!!!YEM: This file must be accompanied by the licensing agreement.
!!!YEM: A copy of the licensing agreement may be found at http://www.music-cog.ohio-state.edu/HumdrumDatabases/Palestrina/license.txt
!!!EMD: converted to Humdrum by Bret Aarden
